Yaru++/animations/24/brasero-disc-85.svg

<svg height="24" width="24" xmlns="http://www.w3.org/2000/svg">
  <g fill="#fff">
    <path d="m12 1c-3.648549 0-6.893032 1.7740821-8.8945313 4.5117187l5.5859373 4.0390625c.751819-1.0133998 1.950765-1.6757812 3.308594-1.6757812zm-9.8828125 6.2304688c-.1504187.311314-.3085951.6185443-.4296875.9453124.122738-.3329275.2765454-.6284753.4296875-.9453124zm6.1015625 3.1796872c-.107219.251533-.202411.499212-.2578125.773438.0549785-.268447.1533985-.526711.2578125-.773438zm-.2578125.773438c-.0527009.260861-.0859375.540162-.0859375.816406 0-.284625.030959-.547959.085937-.816406z" fill-rule="evenodd" opacity=".5"/>
    <path d="m12 1v6.875c2.277.0000001 4.125 1.848 4.125 4.125s-1.848 4.125-4.125 4.125-4.125-1.848-4.125-4.125c.0000001-.918276.306822-1.765431.816406-2.4492188l-5.5859373-4.0390625c-1.328136 1.818348-2.1054686 4.0662738-2.1054687 6.4882813 0 6.072 4.9280003 11 11 11 6.072 0 11-4.928 11-11 0-6.0719999-4.928-11-11-11z"/>
  </g>
</svg>

<!-- Created with Inkscape (http://www.inkscape.org/) -->
<svg width="24" height="24" version="1.0" xmlns="http://www.w3.org/2000/svg" xmlns:xlink="http://www.w3.org/1999/xlink">
 <path d="M 12,1 C 8.351451,1 5.106968,2.7740821 3.1054687,5.5117187 L 8.691406,9.5507812 C 9.443225,8.5373814 10.642171,7.875 12,7.875 Z M 2.1171875,7.2304688 C 1.9667688,7.5417828 1.8085924,7.8490131 1.6875,8.1757812 1.810238,7.8428537 1.9640454,7.5473059 2.1171875,7.2304688 Z M 8.21875,10.410156 C 8.111531,10.661689 8.016339,10.909368 7.9609375,11.183594 8.015916,10.915147 8.114336,10.656883 8.21875,10.410156 Z M 7.9609375,11.183594 C 7.9082366,11.444455 7.875,11.723756 7.875,12 c 0,-0.284625 0.030959,-0.547959 0.085937,-0.816406 z" style="fill-rule:evenodd;fill:#ffffff;opacity:.5"/>
 <path d="m12 1v6.875c2.277 1e-7 4.125 1.848 4.125 4.125s-1.848 4.125-4.125 4.125-4.125-1.848-4.125-4.125c1e-7 -0.918276 0.306822-1.765431 0.816406-2.4492188l-5.5859373-4.0390625c-1.328136 1.818348-2.1054686 4.0662738-2.1054687 6.4882813 0 6.072 4.9280003 11 11 11 6.072 0 11-4.928 11-11 0-6.0719999-4.928-11-11-11z" style="fill:#ffffff"/>
</svg>
